img/info.svg

<svg fill="none" height="17" viewBox="0 0 16 17" width="16" xmlns="http://www.w3.org/2000/svg"><path d="m8 7.3304c.15471 0 .30308.06146.41248.17086.1094.10939.17085.25777.17085.41248v3.49996c0 .1547-.06145.3031-.17085.4125s-.25777.1709-.41248.1709-.30308-.0615-.41248-.1709-.17085-.2578-.17085-.4125v-3.49996c0-.15471.06145-.30309.17085-.41248.1094-.1094.25777-.17086.41248-.17086zm0-.875c.11491 0 .22869-.02263.33485-.0666s.20262-.10843.28387-.18968.1457-.17771.18967-.28387c.04398-.10616.06661-.21994.06661-.33485 0-.1149-.02263-.22868-.06661-.33484-.04397-.10616-.10842-.20262-.18967-.28388-.08125-.08125-.17771-.1457-.28387-.18967s-.21994-.06661-.33485-.06661c-.23176 0-.45402.09207-.61789.25594-.16388.16388-.25594.38614-.25594.6179 0 .23175.09206.45402.25594.61789.16387.16388.38613.25594.61789.25594zm-7 2.04167c0-.91925.18106-1.8295.53284-2.67878.35179-.84928.8674-1.62096 1.51741-2.27097s1.42169-1.16562 2.27097-1.51741c.84928-.35178 1.75953-.53284 2.67878-.53284s1.8295.18106 2.6788.53284c.8493.35179 1.6209.8674 2.2709 1.51741.6501.65001 1.1657 1.42169 1.5175 2.27097.3517.84928.5328 1.75953.5328 2.67878 0 1.85653-.7375 3.63703-2.0503 4.94973-1.3127 1.3128-3.09319 2.0503-4.9497 2.0503-1.85652 0-3.63699-.7375-4.94975-2.0503-1.31275-1.3127-2.05025-3.0932-2.05025-4.94973zm7-5.83333c-1.5471 0-3.03083.61458-4.12479 1.70854s-1.70854 2.57769-1.70854 4.12479c0 1.54713.61458 3.03083 1.70854 4.12483 1.09396 1.0939 2.57769 1.7085 4.12479 1.7085s3.0308-.6146 4.1248-1.7085c1.094-1.094 1.7085-2.5777 1.7085-4.12483 0-1.5471-.6145-3.03083-1.7085-4.12479s-2.5777-1.70854-4.1248-1.70854z" fill="#04162c" fill-opacity=".5"/></svg>

<svg width="16" height="17" viewBox="0 0 16 17" fill="none" xmlns="http://www.w3.org/2000/svg">
<path d="M8 7.3304C8.15471 7.3304 8.30308 7.39186 8.41248 7.50126C8.52188 7.61065 8.58333 7.75903 8.58333 7.91374V11.4137C8.58333 11.5684 8.52188 11.7168 8.41248 11.8262C8.30308 11.9356 8.15471 11.9971 8 11.9971C7.84529 11.9971 7.69692 11.9356 7.58752 11.8262C7.47812 11.7168 7.41667 11.5684 7.41667 11.4137V7.91374C7.41667 7.75903 7.47812 7.61065 7.58752 7.50126C7.69692 7.39186 7.84529 7.3304 8 7.3304ZM8 6.4554C8.11491 6.4554 8.22869 6.43277 8.33485 6.3888C8.44101 6.34483 8.53747 6.28037 8.61872 6.19912C8.69997 6.11787 8.76442 6.02141 8.80839 5.91525C8.85237 5.80909 8.875 5.69531 8.875 5.5804C8.875 5.4655 8.85237 5.35172 8.80839 5.24556C8.76442 5.1394 8.69997 5.04294 8.61872 4.96168C8.53747 4.88043 8.44101 4.81598 8.33485 4.77201C8.22869 4.72804 8.11491 4.7054 8 4.7054C7.76824 4.7054 7.54598 4.79747 7.38211 4.96134C7.21823 5.12522 7.12617 5.34748 7.12617 5.57924C7.12617 5.81099 7.21823 6.03326 7.38211 6.19713C7.54598 6.36101 7.76824 6.45307 8 6.45307V6.4554ZM1 8.49707C1 7.57782 1.18106 6.66757 1.53284 5.81829C1.88463 4.96901 2.40024 4.19733 3.05025 3.54732C3.70026 2.89731 4.47194 2.3817 5.32122 2.02991C6.1705 1.67813 7.08075 1.49707 8 1.49707C8.91925 1.49707 9.8295 1.67813 10.6788 2.02991C11.5281 2.3817 12.2997 2.89731 12.9497 3.54732C13.5998 4.19733 14.1154 4.96901 14.4672 5.81829C14.8189 6.66757 15 7.57782 15 8.49707C15 10.3536 14.2625 12.1341 12.9497 13.4468C11.637 14.7596 9.85651 15.4971 8 15.4971C6.14348 15.4971 4.36301 14.7596 3.05025 13.4468C1.7375 12.1341 1 10.3536 1 8.49707ZM8 2.66374C6.4529 2.66374 4.96917 3.27832 3.87521 4.37228C2.78125 5.46624 2.16667 6.94997 2.16667 8.49707C2.16667 10.0442 2.78125 11.5279 3.87521 12.6219C4.96917 13.7158 6.4529 14.3304 8 14.3304C9.5471 14.3304 11.0308 13.7158 12.1248 12.6219C13.2188 11.5279 13.8333 10.0442 13.8333 8.49707C13.8333 6.94997 13.2188 5.46624 12.1248 4.37228C11.0308 3.27832 9.5471 2.66374 8 2.66374Z" fill="#04162C" fill-opacity="0.5"/>
</svg>
